public/cloud-icons/azure/management/connection-monitor.svg

<?xml version="1.0" encoding="UTF-8" standalone="no"?>
<!-- Generated by Microsoft Visio, SVG Export Connection Monitor.svg Page-1 -->

<svg
   xmlns:dc="http://purl.org/dc/elements/1.1/"
   xmlns:cc="http://creativecommons.org/ns#"
   xmlns:rdf="http://www.w3.org/1999/02/22-rdf-syntax-ns#"
   xmlns:svg="http://www.w3.org/2000/svg"
   xmlns="http://www.w3.org/2000/svg"
   xmlns:sodipodi="http://sodipodi.sourceforge.net/DTD/sodipodi-0.dtd"
   xmlns:inkscape="http://www.inkscape.org/namespaces/inkscape"
   width="0.78739876in"
   height="0.7873807in"
   viewBox="0 0 56.692778 56.691698"
   xml:space="preserve"
   class="st10"
   version="1.1"
   id="svg74"
   sodipodi:docname="Connection Monitor.svg"
   style="font-size:12px;overflow:visible;color-interpolation-filters:sRGB;fill:none;fill-rule:evenodd;stroke-linecap:square;stroke-miterlimit:3"
   inkscape:version="0.92.5 (2060ec1f9f, 2020-04-08)"><metadata
   id="metadata80"><rdf:RDF><cc:Work
       rdf:about=""><dc:format>image/svg+xml</dc:format><dc:type
         rdf:resource="http://purl.org/dc/dcmitype/StillImage" /></cc:Work></rdf:RDF></metadata><defs
   id="defs78" /><sodipodi:namedview
   pagecolor="#ffffff"
   bordercolor="#666666"
   borderopacity="1"
   objecttolerance="10"
   gridtolerance="10"
   guidetolerance="10"
   inkscape:pageopacity="0"
   inkscape:pageshadow="2"
   inkscape:window-width="640"
   inkscape:window-height="480"
   id="namedview76"
   showgrid="false"
   inkscape:zoom="1.7193066"
   inkscape:cx="37.795072"
   inkscape:cy="23.277745"
   inkscape:window-x="0"
   inkscape:window-y="0"
   inkscape:window-maximized="0"
   inkscape:current-layer="svg74" />
	<style
   type="text/css"
   id="style2">
	<![CDATA[
		.st1 {fill:#7a7a7a;stroke:none;stroke-linecap:butt;stroke-width:12.24}
		.st2 {fill:#a0a1a2;stroke:none;stroke-linecap:butt;stroke-width:12.24}
		.st3 {fill:#ffffff;fill-opacity:0.2;stroke:none;stroke-linecap:butt;stroke-width:12.24}
		.st4 {fill:#59b4d9;stroke:none;stroke-linecap:butt;stroke-width:12.24}
		.st5 {fill:#b8d432;stroke:none;stroke-linecap:butt;stroke-width:12.24}
		.st6 {fill:#ffffff;stroke:none;stroke-linecap:butt;stroke-width:12.24}
		.st7 {fill:#ffffff;fill-opacity:0.7;stroke:none;stroke-linecap:butt;stroke-width:12.24}
		.st8 {fill:#ffffff;fill-opacity:0.4;stroke:none;stroke-linecap:butt;stroke-width:12.24}
		.st9 {fill:#804998;stroke:none;stroke-linecap:butt;stroke-width:12.24}
		.st10 {fill:none;fill-rule:evenodd;font-size:12px;overflow:visible;stroke-linecap:square;stroke-miterlimit:3}
	]]>
	</style>

	<g
   id="g72"
   transform="translate(-12.24016,-12.2412)">
		<title
   id="title4">Page-1</title>
		<g
   id="group13475-1"
   transform="translate(12.24,-34.0157)">
			<title
   id="title6">Connection Monitor.13475</title>
			<g
   id="group13476-2">
				<title
   id="title8">g28</title>
				<g
   id="shape13477-3"
   transform="translate(9.08904,-4.52152)">
					<title
   id="title10">path4</title>
					<path
   d="M 26.61,90.81 H 11.17 C 13.02,97.5 10.92,99.47 0,99.47 v 3.48 h 36.75 v -3.5 c -10.92,0 -11.99,-1.94 -10.14,-8.64 z"
   class="st1"
   id="path12"
   inkscape:connector-curvature="0"
   style="fill:#7a7a7a;stroke:none;stroke-width:12.23999977;stroke-linecap:butt" />
				</g>
				<g
   id="shape13478-5"
   transform="translate(0,-16.6531)">
					<title
   id="title15">path6</title>
					<path
   d="M 51.09,62.91 H 3.1 c -1.72,0 -3.1,1.56 -3.1,3.3 v 33.47 c 0,1.73 1.38,3.27 3.1,3.27 h 47.99 c 1.71,0 3.45,-1.54 3.45,-3.27 V 66.21 c -0.01,-1.75 -1.74,-3.3 -3.45,-3.3 z"
   class="st2"
   id="path17"
   inkscape:connector-curvature="0"
   style="fill:#a0a1a2;stroke:none;stroke-width:12.23999977;stroke-linecap:butt" />
				</g>
				<g
   id="shape13479-7"
   transform="translate(0,-16.6519)">
					<title
   id="title20">path8</title>
					<path
   d="M 50.96,62.91 H 50.93 3.09 C 1.38,62.91 0,64.47 0,66.21 v 33.46 c 0,1.74 1.38,3.28 3.09,3.28 h 1.19 z"
   class="st3"
   id="path22"
   inkscape:connector-curvature="0"
   style="fill:#ffffff;fill-opacity:0.2;stroke:none;stroke-width:12.23999977;stroke-linecap:butt" />
				</g>
				<g
   id="shape13480-9"
   transform="translate(4.54452,-20.7526)">
					<title
   id="title25">path10</title>
					<rect
   x="0"
   y="71.645798"
   width="45.445202"
   height="31.302799"
   class="st4"
   id="rect27"
   style="fill:#59b4d9;stroke:none;stroke-width:12.23999977;stroke-linecap:butt" />
				</g>
				<g
   id="shape13481-11"
   transform="translate(4.47863,-21.1132)">
					<title
   id="title30">path12</title>
					<path
   d="M 0,102.95 H 0.07 V 71.83 l 41.5,-0.07 v 0 L 0,71.83 Z"
   class="st4"
   id="path32"
   inkscape:connector-curvature="0"
   style="fill:#59b4d9;stroke:none;stroke-width:12.23999977;stroke-linecap:butt" />
				</g>
				<g
   id="shape13482-13"
   transform="translate(9.08904,-4.52152)">
					<title
   id="title35">path14</title>
					<path
   d="m 0,99.47 36.75,-0.02 v 3.5 H 0 Z"
   class="st2"
   id="path37"
   inkscape:connector-curvature="0"
   style="fill:#a0a1a2;stroke:none;stroke-width:12.23999977;stroke-linecap:butt" />
				</g>
				<g
   id="shape13483-15"
   transform="translate(26.4593,-53.551)">
					<title
   id="title40">path16</title>
					<path
   d="m 1.61,102.13 a 0.806655,0.82315104 0 1 1 -1.61331,0 0.806655,0.82315104 0 1 1 1.61331,0 z"
   class="st5"
   id="path42"
   inkscape:connector-curvature="0"
   style="fill:#b8d432;stroke:none;stroke-width:12.23999977;stroke-linecap:butt" />
				</g>
				<g
   id="shape13484-17"
   transform="translate(17.4476,-37.8022)">
					<title
   id="title45">path18</title>
					<path
   d="M 9.85,102.95 A 0.299938,0.306072 0 0 1 9.704575,102.9083 L 0.14,97.27 a 0.290849,0.296797 0 0 1 0,-0.51128 L 9.65,91.17 a 0.289713,0.295638 0 0 1 0.285169,0 L 19.5,96.8 A 0.287441,0.293319 0 0 1 19.642016,97.05506 0.285169,0.291 0 0 1 19.5,97.31012 L 10,102.91 a 0.291986,0.297957 0 0 1 -0.146561,0.0429 z"
   class="st6"
   id="path47"
   inkscape:connector-curvature="0"
   style="fill:#ffffff;stroke:none;stroke-width:12.23999977;stroke-linecap:butt" />
				</g>
				<g
   id="shape13485-19"
   transform="translate(16.0206,-23.9548)">
					<title
   id="title50">path20</title>
					<path
   d="M 9.83,102.95 A 0.270399,0.275929 0 0 1 9.684575,102.9106 L 0.15,97.36 A 0.279488,0.285204 0 0 1 0.002303,97.107259 L 0,85.97 c 0,-0.11 0.06,-0.2 0.15,-0.26 a 0.289713,0.295638 0 0 1 0.290849,0 L 9.97,91.26 a 0.29653,0.302594 0 0 1 0.14088,0.253901 L 10.11,102.66 c 0,0.1 -0.06,0.2 -0.14,0.25 a 0.304483,0.31071 0 0 1 -0.144289,0.0406 z"
   class="st7"
   id="path52"
   inkscape:connector-curvature="0"
   style="fill:#ffffff;fill-opacity:0.7;stroke:none;stroke-width:12.23999977;stroke-linecap:butt" />
				</g>
				<g
   id="shape13486-21"
   transform="translate(28.4033,-23.9548)">
					<title
   id="title55">path22</title>
					<path
   d="M 0.29,102.95 A 0.310164,0.316506 0 0 1 0.140031,102.9106 0.293122,0.299116 0 0 1 2.87e-4,102.6567 L 0,91.59 A 0.295394,0.301435 0 0 1 0.139744,91.337259 L 9.67,85.79 a 0.286305,0.29216 0 0 1 0.286305,0 C 10.05,85.84 10.1,85.93 10.1,86.04 V 97.1 A 0.279488,0.285204 0 0 1 9.953439,97.352741 L 0.43,102.91 a 0.247676,0.252741 0 0 1 -0.138608,0.0406 z"
   class="st8"
   id="path57"
   inkscape:connector-curvature="0"
   style="fill:#ffffff;fill-opacity:0.4;stroke:none;stroke-width:12.23999977;stroke-linecap:butt" />
				</g>
				<g
   id="shape13487-23"
   transform="translate(29.653)">
					<title
   id="title60">circle24</title>
					<ellipse
   cx="13.52"
   cy="89.152199"
   rx="13.52"
   ry="13.7964"
   class="st9"
   id="ellipse62"
   style="fill:#804998;stroke:none;stroke-width:12.23999977;stroke-linecap:butt" />
				</g>
				<g
   id="shape13488-25"
   transform="translate(33.3818,-3.80503)">
					<title
   id="title65">path26</title>
					<path
   d="m 12.85,99.28 a 6.80542,6.94459 0 0 1 -3.06,0.75 6.93494,7.07676 0 0 1 -6.93,-7.07 6.93494,7.07676 0 0 1 6.93,-7.07 c 3.41,0 6.24,2.6 6.82,5.91 H 13.2 l 4.54,6.37 4.55,-6.37 H 19.5 C 18.9,86.87 14.78,82.97 9.79,82.97 4.39,82.97 0,87.45 0,92.96 c 0,5.51 4.39,9.99 9.79,9.99 a 9.73777,9.93691 -180 0 0 4.77,-1.28 z"
   class="st6"
   id="path67"
   inkscape:connector-curvature="0"
   style="fill:#ffffff;stroke:none;stroke-width:12.23999977;stroke-linecap:butt" />
				</g>
			</g>
		</g>
	</g>
</svg>

<svg xmlns="http://www.w3.org/2000/svg" xml:space="preserve" width="75.59" height="75.589" style="font-size:12px;overflow:visible;color-interpolation-filters:sRGB;fill-rule:evenodd;stroke-linecap:square;stroke-miterlimit:3" viewBox="0 0 56.693 56.692"><g transform="translate(-12.24 -12.241)"><title>Page-1</title><g transform="translate(12.24 -34.016)"><title>Connection Monitor.13475</title><title>g28</title><g transform="translate(9.089 -4.522)"><title>path4</title><path d="M26.61 90.81H11.17c1.85 6.69-.25 8.66-11.17 8.66v3.48h36.75v-3.5c-10.92 0-11.99-1.94-10.14-8.64" style="fill:#7a7a7a;stroke:none;stroke-width:12.23999977;stroke-linecap:butt"/></g><g transform="translate(0 -16.653)"><title>path6</title><path d="M51.09 62.91H3.1c-1.72 0-3.1 1.56-3.1 3.3v33.47c0 1.73 1.38 3.27 3.1 3.27h47.99c1.71 0 3.45-1.54 3.45-3.27V66.21c-.01-1.75-1.74-3.3-3.45-3.3" style="fill:#a0a1a2;stroke:none;stroke-width:12.23999977;stroke-linecap:butt"/></g><g transform="translate(0 -16.652)"><title>path8</title><path d="M50.96 62.91H3.09c-1.71 0-3.09 1.56-3.09 3.3v33.46c0 1.74 1.38 3.28 3.09 3.28h1.19z" style="fill:#fff;fill-opacity:.2;stroke:none;stroke-width:12.23999977;stroke-linecap:butt"/></g><g transform="translate(4.545 -20.753)"><title>path10</title><path d="M0 71.646h45.445v31.303H0z" style="fill:#59b4d9;stroke:none;stroke-width:12.23999977;stroke-linecap:butt"/></g><g transform="translate(4.479 -21.113)"><title>path12</title><path d="M0 102.95h.07V71.83l41.5-.07L0 71.83Z" style="fill:#59b4d9;stroke:none;stroke-width:12.23999977;stroke-linecap:butt"/></g><g transform="translate(9.089 -4.522)"><title>path14</title><path d="m0 99.47 36.75-.02v3.5H0Z" style="fill:#a0a1a2;stroke:none;stroke-width:12.23999977;stroke-linecap:butt"/></g><g transform="translate(26.46 -53.551)"><title>path16</title><path d="M1.61 102.13a.807.823 0 1 1-1.613 0 .807.823 0 1 1 1.613 0" style="fill:#b8d432;stroke:none;stroke-width:12.23999977;stroke-linecap:butt"/></g><g transform="translate(17.448 -37.802)"><title>path18</title><path d="M9.85 102.95a.3.306 0 0 1-.145-.042L.14 97.27a.29.297 0 0 1 0-.511l9.51-5.589a.29.296 0 0 1 .285 0L19.5 96.8a.287.293 0 0 1 .142.255.285.291 0 0 1-.142.255l-9.5 5.6a.292.298 0 0 1-.147.043z" style="fill:#fff;stroke:none;stroke-width:12.23999977;stroke-linecap:butt"/></g><g transform="translate(16.02 -23.955)"><title>path20</title><path d="M9.83 102.95a.27.276 0 0 1-.145-.04L.15 97.36a.28.285 0 0 1-.148-.253L0 85.97c0-.11.06-.2.15-.26a.29.296 0 0 1 .29 0l9.53 5.55a.297.303 0 0 1 .14.254v11.146c0 .1-.06.2-.14.25a.304.31 0 0 1-.144.04z" style="fill:#fff;fill-opacity:.7;stroke:none;stroke-width:12.23999977;stroke-linecap:butt"/></g><g transform="translate(28.403 -23.955)"><title>path22</title><path d="M.29 102.95a.31.317 0 0 1-.15-.04.293.3 0 0 1-.14-.253V91.59a.295.301 0 0 1 .14-.253l9.53-5.547a.286.292 0 0 1 .286 0 .27.27 0 0 1 .144.25V97.1a.28.285 0 0 1-.147.253L.43 102.91a.248.253 0 0 1-.139.04z" style="fill:#fff;fill-opacity:.4;stroke:none;stroke-width:12.23999977;stroke-linecap:butt"/></g><g transform="translate(29.653)"><title>circle24</title><ellipse cx="13.52" cy="89.152" rx="13.52" ry="13.796" style="fill:#804998;stroke:none;stroke-width:12.23999977;stroke-linecap:butt"/></g><g transform="translate(33.382 -3.805)"><title>path26</title><path d="M12.85 99.28a6.805 6.945 0 0 1-3.06.75 6.935 7.077 0 0 1-6.93-7.07 6.935 7.077 0 0 1 6.93-7.07c3.41 0 6.24 2.6 6.82 5.91H13.2l4.54 6.37 4.55-6.37H19.5c-.6-4.93-4.72-8.83-9.71-8.83-5.4 0-9.79 4.48-9.79 9.99s4.39 9.99 9.79 9.99a9.738 9.937-180 0 0 4.77-1.28z" style="fill:#fff;stroke:none;stroke-width:12.23999977;stroke-linecap:butt"/></g></g></g></svg>
